package/converter/svg/light/anchor.svg

<svg xmlns="http://www.w3.org/2000/svg" viewBox="0 0 576 512"><!-- Font Awesome Pro 6.0.0-alpha2 by @fontawesome - https://fontawesome.com License - https://fontawesome.com/license (Commercial License) --><path d="M571.312 324.688L507.312 260.688C501.062 254.438 490.937 254.438 484.688 260.688L420.688 324.688C414.438 330.938 414.438 341.063 420.688 347.312S437.063 353.562 443.312 347.312L480 310.625V336C480 415.406 415.406 480 336 480H304V224H368C376.844 224 384 216.844 384 208S376.844 192 368 192H304V158.381C340.471 150.947 368 118.631 368 80C368 35.891 332.109 0 288 0S208 35.891 208 80C208 118.631 235.529 150.947 272 158.381V192H208C199.156 192 192 199.156 192 208S199.156 224 208 224H272V480H240C160.594 480 96 415.406 96 336V310.625L132.688 347.312C135.812 350.438 139.906 352 144 352S152.188 350.438 155.312 347.312C161.562 341.062 161.562 330.937 155.312 324.688L91.312 260.688C85.062 254.438 74.937 254.438 68.688 260.688L4.688 324.688C-1.563 330.938 -1.563 341.063 4.688 347.312S21.063 353.562 27.312 347.312L64 310.625V336C64 433.047 142.953 512 240 512H336C433.047 512 512 433.047 512 336V310.625L548.688 347.312C551.812 350.438 555.906 352 560 352S568.188 350.438 571.312 347.312C577.562 341.062 577.562 330.938 571.312 324.688ZM240 80C240 53.531 261.531 32 288 32S336 53.531 336 80S314.469 128 288 128S240 106.469 240 80Z"/></svg>

<svg xmlns="http://www.w3.org/2000/svg" viewBox="0 0 576 512"><!--! Font Awesome Pro 6.6.0 by @fontawesome - https://fontawesome.com License - https://fontawesome.com/license (Commercial License) Copyright 2024 Fonticons, Inc. --><path d="M336 80a48 48 0 1 1 -96 0 48 48 0 1 1 96 0zM288 0c-44.2 0-80 35.8-80 80c0 38.7 27.5 71 64.1 78.4c-.1 .5-.1 1-.1 1.6l0 32-64 0c-8.8 0-16 7.2-16 16s7.2 16 16 16l64 0 0 256-32 0c-79.5 0-144-64.5-144-144l0-25.4 36.7 36.7c6.2 6.2 16.4 6.2 22.6 0s6.2-16.4 0-22.6l-64-64c-6.2-6.2-16.4-6.2-22.6 0l-64 64c-6.2 6.2-6.2 16.4 0 22.6s16.4 6.2 22.6 0L64 310.6 64 336c0 97.2 78.8 176 176 176l48 0 48 0c97.2 0 176-78.8 176-176l0-25.4 36.7 36.7c6.2 6.2 16.4 6.2 22.6 0s6.2-16.4 0-22.6l-64-64c-6.2-6.2-16.4-6.2-22.6 0l-64 64c-6.2 6.2-6.2 16.4 0 22.6s16.4 6.2 22.6 0L480 310.6l0 25.4c0 79.5-64.5 144-144 144l-32 0 0-256 64 0c8.8 0 16-7.2 16-16s-7.2-16-16-16l-64 0 0-32c0-.5 0-1.1-.1-1.6C340.5 151 368 118.7 368 80c0-44.2-35.8-80-80-80z"/></svg>
